svg/u26f8.svg

<svg viewBox="0 0 128 128" xmlns="http://www.w3.org/2000/svg">
  <path d="M124.57,112.61c0.2-0.39-0.84-3.99-2.07-5.91c-1.23-1.92-3.38-3.61-3.38-3.61l-5.45,1.54 c0,0,2.86,1.54,2.95,4.22c0.06,1.77-1.47,3.79-4.55,3.96c-1.23,0.06-7.36,0.34-15.19,0.08c-0.9-0.55-2.77-1.88-3.13-3.65 c-0.47-2.36-0.08-4.95-0.08-4.95l-8.01,0.47c0,0.31,0.55,3.38-1.02,5.18c-1,1.15-2.53,1.93-3.61,2.37 c-7.09-0.27-13.45-0.54-16.61-0.71c-5.33-0.29-19.9-1.21-31.59-1.9c-1.13-1.03-2.54-2.62-2.77-4.32c-0.39-2.91,0.08-6.2,0.08-6.2 l-9.42-0.24c0,0-0.03,5.55-1.73,7.54c-1.31,1.52-2.67,2.21-3.4,2.49c-2.65,0.13-6.43-0.38-10.01,0.82c-3.81,1.28-4.3,6.48-4.3,6.48 s8.05,1.36,20.95,2.06s44.87,2.73,65.62,2.8c23.86,0.09,31.79-0.58,32.19-1.43c0.25-0.53-1.49-3.08-1.49-3.08s4.46,0.29,4.65-0.17 c0.18-0.46-2.3-3.53-2.3-3.53S124.37,113,124.57,112.61z" fill="#B0B0B0"/>
  <path d="M8.38,113.08c-0.18,1.69,0.99,1.77,4.39,1.91s39.7,1.67,48.77,2.32s50.25,1.14,51.26,1.14 c1.01,0,1.62-0.74,1.58-1.58c-0.04-0.83-0.92-1.01-1.75-1.01c-0.83,0-37.91-0.5-51.01-1.19c-13.1-0.69-47.15-2.47-49.31-2.62 C10.15,111.91,8.55,111.56,8.38,113.08z" fill="#C8C8C8"/>
  <path d="M24.1,76.61l-10.93,0.96c0,0,0.17,1.06,0.6,1.8s0.78,1.39,0.78,1.39s0.28,7.76,0.49,11 c0.22,3.24,1.22,6.84,1.73,7.35c0.5,0.5,0.34,1.88,8.91,2.6c8.57,0.72,10.25-1.16,10.32-1.66c0.07-0.5,0.43-4.83,0.43-4.83 s11.31,0.5,19.31,3.89s15.42,6.63,17.51,6.84c2.09,0.22,13.69,0.58,24.5,0.43c10.81-0.14,19.84-1,22.55-2.38 c2.11-1.08,3.63-2.47,3.6-4.11c-0.01-0.86-0.28-2.12-0.28-2.12L61.98,85.59L24.1,76.61z" fill="#474C4F"/>
  <path d="M66.84,9.11c0,0-8.31-1.02-9.41,0.58c-1.11,1.6-2.09,3.81-2.09,3.81l-29.23,8.2 c0,0-3.23,12.09-5.78,19.7c-2.13,6.38-7.26,16.07-7.93,24.51c-0.61,7.67,0.76,11.66,0.76,11.66s4.1,2.28,10.24,3.91 c8.15,2.15,12.6,2.17,22.19,5.62c9.6,3.44,26.14,13.05,30.24,14.23c4.87,1.4,23.9,0.76,31.89,0.26c8-0.49,15.75-1.85,16.12-2.95 s1.04-8.51-2.73-11.61c-4.29-3.53-8.96-4.67-8.96-4.67l-1.11-0.52c0,0-2.22-2.44-4.44-3.7c-3.13-1.77-4.59-2.3-4.59-2.3l-2.15-1.85 c0,0-5.32-4.83-7.18-6.37c-2.44-2-9.85-6.81-9.85-6.81s-1.23-2.39-2.15-3.85c-1.87-3-6.25-7.13-6.25-7.13l-0.79-6.27 c0,0-0.81-19.85-3.42-26.78C67.88,10.53,66.84,9.11,66.84,9.11z" fill="#D8CDC9"/>
  <path d="M28.75,30.44c-2.12,0.08-2.15,2.15-3.56,6.46c-0.65,1.98-2.18,6.4-4.12,11.46 c-2.9,7.57-5.11,12.07-5.52,16.44c-0.57,5.98,2.06,9.51,4.4,9.36c3.09-0.19,2.15-6.18,2.62-12.08c0.47-5.9,1.91-11.9,3.54-17.13 C27.73,39.74,32.59,30.31,28.75,30.44z" fill="#FEFFFF"/>
  <path d="M25.96,22.89c0,0,8.97-2.47,15.15-3.96c6.18-1.5,12.36-2.43,12.36-2.43s1.59,13.11,2.81,20.13 s3.03,13.84,6.65,19.19c3.73,5.52,12.06,11.89,19.17,17.63c8.53,6.88,17.44,11.4,23.9,11.68c6.46,0.28,6.61-1.81,6.42-2.48 c-0.15-0.51-0.99-1.08-1.83-0.7s-3.59,0.38-4.92,0.33s-7.4-1.05-13.15-4.91c-8-5.37-16.27-11.41-19.85-15.2 c-3.58-3.79-6.81-6.55-8.79-10.51c-1.09-2.17-3.6-7.63-4.72-14.82c-1.13-7.22-2.84-17.67-2.58-19s4.01-1.87,4.68-0.8 s1.02,2.56,1.23,5.37c0.2,2.81,1.79,18.01,5.37,23.59c3.58,5.58,7.73,5.68,8.03,5.68s1.02-0.92-0.56-2.56s-3.12-3.75-3.94-5.27 c-1.33-2.46-2.56-4.91-3.84-12.54s-1.7-15.21-4.09-18.17c-2.35-2.92-4.31-2.54-4.31-2.54s0.85-0.84,3.93-0.89 c3.02-0.05,4.17,0.41,4.17,0.41s0.52-2.55-1.73-3.52C63.25,5.62,56.15,6.42,54.62,8c-1.36,1.4-0.94,2.93-0.94,2.93 S46.02,12,41.88,13.11c-6.28,1.69-14,4.07-14.81,4.94C25.43,19.79,25.96,22.89,25.96,22.89z" fill="#B1B0B0"/>
  <path d="M61.13,42.8c-1.8,0.23-3.12,3.16-2.06,5.44c1.21,2.6,3.2,3.04,5.08,2.24 c1.7-0.73,1.27-3.12,0.57-4.99C63.99,43.56,63,42.56,61.13,42.8z" fill="#464C4E"/>
  <path d="M65.47,54.06c-0.99,0.77-1.53,3.47,0.68,5.67c1.57,1.57,3.63,1.33,4.65,0.54 c1.03-0.79,1.57-2.48-0.12-5.02C68.99,52.72,66.48,53.27,65.47,54.06z" fill="#464C4E"/>
  <path d="M75.39,62.31c-1.25,1.16-1.71,3.82,0.02,5.63c1.79,1.88,4.05,1.32,5.08,0.52 c1.34-1.05,1.86-3.4-0.09-5.53C78.5,60.86,76.29,61.47,75.39,62.31z" fill="#464C4E"/>
  <path d="M85.22,70.61c-1.29,1.38-1.11,4.14,0.66,5.56c1.96,1.57,4.18,1.05,5.31-0.03 c0.97-0.93,1.51-3.26-0.48-5.15C88.72,69.1,86.51,69.23,85.22,70.61z" fill="#464C4E"/>
  <path d="M94.71,77.53c-1.01,1.41-0.86,3.77,1.64,4.89c2.2,0.99,4.28,0.02,4.87-0.99 c0.56-0.97,0.47-3.2-1.64-4.19C97.47,76.25,95.49,76.45,94.71,77.53z" fill="#464C4E"/>
  <path d="M59.33,17.53c0.15,1.24,1.19,2.43,3.19,2.24c4.48-0.43,8.49-0.22,8.49-0.22s1.12-0.82,0.39-3.1 c-0.54-1.67-2.11-2.11-2.11-2.11s-5.3-0.26-7.37,0.34C60.79,15.01,59.07,15.46,59.33,17.53z" fill="#F2EDEC"/>
  <path d="M61.4,26.32c0.15,2.21,2.28,2.28,3.36,2.24c1.04-0.04,3.3-0.24,4.38-0.28 c1.08-0.04,3.03-0.15,3.34-0.28c0.3-0.13,0.87-0.89,0.78-2.93c-0.05-1.15-0.85-1.97-1.63-2.06c-0.78-0.09-4.1-0.08-5.99,0.18 C63.92,23.43,61.23,23.73,61.4,26.32z" fill="#F2EDEC"/>
  <path d="M62.99,35.76c0.18,2.19,0.56,2.67,3.19,2.46c2.63-0.22,6.68,0.35,7.5-0.12 c0.82-0.47,1.36-2.08,0.97-3.63c-0.26-1.05-1.4-1.89-1.87-1.89s-5.13,0.47-7.02,0.73S62.86,34.16,62.99,35.76z" fill="#F2EDEC"/>
  <path d="M58.43,15.03c-1.47,0.13-2.8,1.29-2.46,3.4s1.98,2.33,3.1,2.15c1.66-0.26,2.67-1.56,2.37-3.45 C61.14,15.24,59.62,14.92,58.43,15.03z" fill="#FFFFFF"/>
  <path d="M57.05,27.05c0.19,1.64,1.42,2.89,3.36,2.59c1.94-0.3,2.67-1.72,2.54-3.32 c-0.13-1.55-1.61-2.77-3.36-2.59C57.56,23.95,56.88,25.54,57.05,27.05z" fill="#FFFFFF"/>
  <path d="M61.1,33.26c-1.68,0.13-3.09,1.57-2.63,3.71c0.47,2.2,2.12,2.49,3.62,2.24 c1.55-0.26,2.5-1.59,2.2-3.53C64.07,34.28,62.65,33.14,61.1,33.26z" fill="#FFFFFF"/>
  <path d="M61.14,46.87c0.47,2.93,3.4,3.02,5.26,2.5s3.75-1.08,5.3-0.95c1.55,0.13,3.88,0.95,4.65,0.26 c0.78-0.69-0.22-4.78-1.25-5.47c-1.03-0.69-3.75-1.12-6.08-1.03c-2.33,0.09-4.18,0.52-5.04,0.78S60.71,44.2,61.14,46.87z" fill="#F2EDEC"/>
  <path d="M67.09,58.02c1.05,1.34,2.61,1.4,5.2,0.38c2.67-1.05,5.34-2,6.63-2.53c0.84-0.34,2.48-1.57,0.62-3.67 c-1.86-2.1-4.58-1.09-6.2-0.62c-1.81,0.52-3.49,1.25-4.63,1.91C67.23,54.34,65.57,56.08,67.09,58.02z" fill="#F2EDEC"/>
  <path d="M76.96,66.84c-1.17-1.17-0.67-3.98,1.24-5.15c1.86-1.15,2.8-1.59,4.34-1.96 c1.19-0.29,2.53,0,3.44,0.72c0.91,0.72,1.8,2.14,1.05,2.67c-0.48,0.33-2.68,1.9-3.72,2.53C81.88,66.51,79.21,69.08,76.96,66.84z" fill="#F2EDEC"/>
  <path d="M87.6,73.62c1.81,1.97,3.35,1.43,5.39-0.38c1.72-1.53,2.58-2.19,2.58-2.96 c0-0.76-0.62-3.72-3.96-3.34c-1.24,0.14-3.15,1.86-3.82,2.67C87.13,70.42,86.5,72.42,87.6,73.62z" fill="#F2EDEC"/>
  <path d="M96.67,76.1c-0.49,0.65-1.24,3.1,0.95,4.06s3.63-0.52,3.96-0.81c0.33-0.29,1.96-2.05,2.05-2.39 c0.1-0.33,0.43-1.86-1.24-3.05c-1.66-1.18-3-0.33-3.39-0.05C98.34,74.33,97.53,74.95,96.67,76.1z" fill="#F2EDEC"/>
</svg>

<svg viewBox="0 0 128 128" xmlns="http://www.w3.org/2000/svg">
  <defs/>
  <path d="M124.57,112.61 C124.77,112.22 123.73,108.62 122.5,106.7 C121.27,104.78 119.12,103.09 119.12,103.09 L113.67,104.63 C113.67,104.63 116.53,106.17 116.62,108.85 C116.68,110.62 115.15,112.64 112.07,112.81 C110.84,112.87 104.71,113.15 96.88,112.89 C95.98,112.34 94.11,111.01 93.75,109.24 C93.28,106.88 93.67,104.29 93.67,104.29 L85.66,104.76 C85.66,105.07 86.21,108.14 84.64,109.94 C83.64,111.09 82.11,111.87 81.03,112.31 C73.94,112.04 67.58,111.77 64.42,111.6 C59.09,111.31 44.52,110.39 32.83,109.7 C31.7,108.67 30.29,107.08 30.06,105.38 C29.67,102.47 30.14,99.18 30.14,99.18 L20.72,98.94 C20.72,98.94 20.69,104.49 18.99,106.48 C17.68,108 16.32,108.69 15.59,108.97 C12.94,109.1 9.16,108.59 5.58,109.79 C1.77,111.07 1.28,116.27 1.28,116.27 C1.28,116.27 9.33,117.63 22.23,118.33 C35.13,119.03 67.1,121.06 87.85,121.13 C111.71,121.22 119.64,120.55 120.04,119.7 C120.29,119.17 118.55,116.62 118.55,116.62 C118.55,116.62 123.01,116.91 123.2,116.45 C123.38,115.99 120.9,112.92 120.9,112.92 C120.9,112.92 124.37,113 124.57,112.61 Z" fill="#B0B0B0"/>
  <path d="M8.38,113.08 C8.2,114.77 9.37,114.85 12.77,114.99 C16.17,115.13 52.47,116.66 61.54,117.31 C70.61,117.96 111.79,118.45 112.8,118.45 C113.81,118.45 114.42,117.71 114.38,116.87 C114.34,116.04 113.46,115.86 112.63,115.86 C111.8,115.86 74.72,115.36 61.62,114.67 C48.52,113.98 14.47,112.2 12.31,112.05 C10.15,111.91 8.55,111.56 8.38,113.08 Z" fill="#C8C8C8"/>
  <path d="M24.1,76.61 L13.17,77.57 C13.17,77.57 13.34,78.63 13.77,79.37 C14.2,80.11 14.55,80.76 14.55,80.76 C14.55,80.76 14.83,88.52 15.04,91.76 C15.26,95 16.26,98.6 16.77,99.11 C17.27,99.61 17.11,100.99 25.68,101.71 C34.25,102.43 35.93,100.55 36,100.05 C36.07,99.55 36.43,95.22 36.43,95.22 C36.43,95.22 47.74,95.72 55.74,99.11 C63.74,102.5 71.16,105.74 73.25,105.95 C75.34,106.17 86.94,106.53 97.75,106.38 C108.56,106.24 117.59,105.38 120.3,104 C122.41,102.92 123.93,101.53 123.9,99.89 C123.89,99.03 123.62,97.77 123.62,97.77 L61.98,85.59 L24.1,76.61 Z" fill="#474C4F"/>
  <path d="M66.84,9.11 C66.84,9.11 58.53,8.09 57.43,9.69 C56.32,11.29 55.34,13.5 55.34,13.5 L26.11,21.7 C26.11,21.7 22.88,33.79 20.33,41.4 C18.2,47.78 13.07,57.47 12.4,65.91 C11.79,73.58 13.16,77.57 13.16,77.57 C13.16,77.57 17.26,79.85 23.4,81.48 C31.55,83.63 36,83.65 45.59,87.1 C55.19,90.54 71.73,100.15 75.83,101.33 C80.7,102.73 99.73,102.09 107.72,101.59 C115.72,101.1 123.47,99.74 123.84,98.64 C124.21,97.54 124.88,90.13 121.11,87.03 C116.82,83.5 112.15,82.36 112.15,82.36 L111.04,81.84 C111.04,81.84 108.82,79.4 106.6,78.14 C103.47,76.37 102.01,75.84 102.01,75.84 L99.86,73.99 C99.86,73.99 94.54,69.16 92.68,67.62 C90.24,65.62 82.83,60.81 82.83,60.81 C82.83,60.81 81.6,58.42 80.68,56.96 C78.81,53.96 74.43,49.83 74.43,49.83 L73.64,43.56 C73.64,43.56 72.83,23.71 70.22,16.78 C67.88,10.53 66.84,9.11 66.84,9.11 Z" fill="#D8CDC9"/>
  <path d="M28.75,30.44 C26.63,30.52 26.6,32.59 25.19,36.9 C24.54,38.88 23.01,43.3 21.07,48.36 C18.17,55.93 15.96,60.43 15.55,64.8 C14.98,70.78 17.61,74.31 19.95,74.16 C23.04,73.97 22.1,67.98 22.57,62.08 C23.04,56.18 24.48,50.18 26.11,44.95 C27.73,39.74 32.59,30.31 28.75,30.44 Z" fill="#FEFFFF"/>
  <path d="M25.96,22.89 C25.96,22.89 34.93,20.42 41.11,18.93 C47.29,17.43 53.47,16.5 53.47,16.5 C53.47,16.5 55.06,29.61 56.28,36.63 C57.5,43.65 59.31,50.47 62.93,55.82 C66.66,61.34 74.99,67.71 82.1,73.45 C90.63,80.33 99.54,84.85 106,85.13 C112.46,85.41 112.61,83.32 112.42,82.65 C112.27,82.14 111.43,81.57 110.59,81.95 C109.75,82.33 107,82.33 105.67,82.28 C104.34,82.23 98.27,81.23 92.52,77.37 C84.52,72 76.25,65.96 72.67,62.17 C69.09,58.38 65.86,55.62 63.88,51.66 C62.79,49.49 60.28,44.03 59.16,36.84 C58.03,29.62 56.32,19.17 56.58,17.84 C56.84,16.51 60.59,15.97 61.26,17.04 C61.93,18.11 62.28,19.6 62.49,22.41 C62.69,25.22 64.28,40.42 67.86,46 C71.44,51.58 75.59,51.68 75.89,51.68 C76.19,51.68 76.91,50.76 75.33,49.12 C73.75,47.48 72.21,45.37 71.39,43.85 C70.06,41.39 68.83,38.94 67.55,31.31 C66.27,23.68 65.85,16.1 63.46,13.14 C61.11,10.22 59.15,10.6 59.15,10.6 C59.15,10.6 60,9.76 63.08,9.71 C66.1,9.66 67.25,10.12 67.25,10.12 C67.25,10.12 67.77,7.57 65.52,6.6 C63.25,5.62 56.15,6.42 54.62,8 C53.26,9.4 53.68,10.93 53.68,10.93 C53.68,10.93 46.02,12 41.88,13.11 C35.6,14.8 27.88,17.18 27.07,18.05 C25.43,19.79 25.96,22.89 25.96,22.89 Z" fill="#B1B0B0"/>
  <path d="M61.13,42.8 C59.33,43.03 58.01,45.96 59.07,48.24 C60.28,50.84 62.27,51.28 64.15,50.48 C65.85,49.75 65.42,47.36 64.72,45.49 C63.99,43.56 63,42.56 61.13,42.8 Z" fill="#464C4E"/>
  <path d="M65.47,54.06 C64.48,54.83 63.94,57.53 66.15,59.73 C67.72,61.3 69.78,61.06 70.8,60.27 C71.83,59.48 72.37,57.79 70.68,55.25 C68.99,52.72 66.48,53.27 65.47,54.06 Z" fill="#464C4E"/>
  <path d="M75.39,62.31 C74.14,63.47 73.68,66.13 75.41,67.94 C77.2,69.82 79.46,69.26 80.49,68.46 C81.83,67.41 82.35,65.06 80.4,62.93 C78.5,60.86 76.29,61.47 75.39,62.31 Z" fill="#464C4E"/>
  <path d="M85.22,70.61 C83.93,71.99 84.11,74.75 85.88,76.17 C87.84,77.74 90.06,77.22 91.19,76.14 C92.16,75.21 92.7,72.88 90.71,70.99 C88.72,69.1 86.51,69.23 85.22,70.61 Z" fill="#464C4E"/>
  <path d="M94.71,77.53 C93.7,78.94 93.85,81.3 96.35,82.42 C98.55,83.41 100.63,82.44 101.22,81.43 C101.78,80.46 101.69,78.23 99.58,77.24 C97.47,76.25 95.49,76.45 94.71,77.53 Z" fill="#464C4E"/>
  <path d="M59.33,17.53 C59.48,18.77 60.52,19.96 62.52,19.77 C67,19.34 71.01,19.55 71.01,19.55 C71.01,19.55 72.13,18.73 71.4,16.45 C70.86,14.78 69.29,14.34 69.29,14.34 C69.29,14.34 63.99,14.08 61.92,14.68 C60.79,15.01 59.07,15.46 59.33,17.53 Z" fill="#F2EDEC"/>
  <path d="M61.4,26.32 C61.55,28.53 63.68,28.6 64.76,28.56 C65.8,28.52 68.06,28.32 69.14,28.28 C70.22,28.24 72.17,28.13 72.48,28 C72.78,27.87 73.35,27.11 73.26,25.07 C73.21,23.92 72.41,23.1 71.63,23.01 C70.85,22.92 67.53,22.93 65.64,23.19 C63.92,23.43 61.23,23.73 61.4,26.32 Z" fill="#F2EDEC"/>
  <path d="M62.99,35.76 C63.17,37.95 63.55,38.43 66.18,38.22 C68.81,38 72.86,38.57 73.68,38.1 C74.5,37.63 75.04,36.02 74.65,34.47 C74.39,33.42 73.25,32.58 72.78,32.58 C72.31,32.58 67.65,33.05 65.76,33.31 C63.87,33.57 62.86,34.16 62.99,35.76 Z" fill="#F2EDEC"/>
  <path d="M58.43,15.03 C56.96,15.16 55.63,16.32 55.97,18.43 C56.31,20.54 57.95,20.76 59.07,20.58 C60.73,20.32 61.74,19.02 61.44,17.13 C61.14,15.24 59.62,14.92 58.43,15.03 Z" fill="#FFFFFF"/>
  <path d="M57.05,27.05 C57.24,28.69 58.47,29.94 60.41,29.64 C62.35,29.34 63.08,27.92 62.95,26.32 C62.82,24.77 61.34,23.55 59.59,23.73 C57.56,23.95 56.88,25.54 57.05,27.05 Z" fill="#FFFFFF"/>
  <path d="M61.1,33.26 C59.42,33.39 58.01,34.83 58.47,36.97 C58.94,39.17 60.59,39.46 62.09,39.21 C63.64,38.95 64.59,37.62 64.29,35.68 C64.07,34.28 62.65,33.14 61.1,33.26 Z" fill="#FFFFFF"/>
  <path d="M61.14,46.87 C61.61,49.8 64.54,49.89 66.4,49.37 C68.26,48.85 70.15,48.29 71.7,48.42 C73.25,48.55 75.58,49.37 76.35,48.68 C77.13,47.99 76.13,43.9 75.1,43.21 C74.07,42.52 71.35,42.09 69.02,42.18 C66.69,42.27 64.84,42.7 63.98,42.96 C63.12,43.22 60.71,44.2 61.14,46.87 Z" fill="#F2EDEC"/>
  <path d="M67.09,58.02 C68.14,59.36 69.7,59.42 72.29,58.4 C74.96,57.35 77.63,56.4 78.92,55.87 C79.76,55.53 81.4,54.3 79.54,52.2 C77.68,50.1 74.96,51.11 73.34,51.58 C71.53,52.1 69.85,52.83 68.71,53.49 C67.23,54.34 65.57,56.08 67.09,58.02 Z" fill="#F2EDEC"/>
  <path d="M76.96,66.84 C75.79,65.67 76.29,62.86 78.2,61.69 C80.06,60.54 81,60.1 82.54,59.73 C83.73,59.44 85.07,59.73 85.98,60.45 C86.89,61.17 87.78,62.59 87.03,63.12 C86.55,63.45 84.35,65.02 83.31,65.65 C81.88,66.51 79.21,69.08 76.96,66.84 Z" fill="#F2EDEC"/>
  <path d="M87.6,73.62 C89.41,75.59 90.95,75.05 92.99,73.24 C94.71,71.71 95.57,71.05 95.57,70.28 C95.57,69.52 94.95,66.56 91.61,66.94 C90.37,67.08 88.46,68.8 87.79,69.61 C87.13,70.42 86.5,72.42 87.6,73.62 Z" fill="#F2EDEC"/>
  <path d="M96.67,76.1 C96.18,76.75 95.43,79.2 97.62,80.16 C99.81,81.12 101.25,79.64 101.58,79.35 C101.91,79.06 103.54,77.3 103.63,76.96 C103.73,76.63 104.06,75.1 102.39,73.91 C100.73,72.73 99.39,73.58 99,73.86 C98.34,74.33 97.53,74.95 96.67,76.1 Z" fill="#F2EDEC"/>
</svg>
